X:197
T:Gower Reel
M:4/4
L:1/8
Q:180
C:Trad. arr. J.T.
R:Hornpipe
N:Compressed into one octave. Second measure is mostly a harmony
K:D
A2 F2 AB AB | A2 d2 d2 cB | A2 F2 AB AB |
A2 G2 F4 | A2 F2 AB AB | A2 D2 D2 E2|
| F2 A2 GF GE | D2 C2 D4 || A2 FG A2 A2|
| GF EF GA B2 | A2 FG A2 A2 | B2 cB A4|
| A2 FG A2 A2 | GF EF GA B2 |
A2 A2 GF GE | D2 C2 D4 ||
